flags/ai.svg

<svg width="512" height="512" viewBox="0 0 512 512" fill="none" xmlns="http://www.w3.org/2000/svg">
<rect width="512" height="512" fill="var(--flag-palette-navy, #002266)"/>
<rect width="256" height="256" fill="var(--flag-palette-navy, #002266)"/>
<path d="M232 256H256V232L152 128L256 24V0H232L128 104L24 0H0V24L104 128L0 232V256H24L128 152L232 256Z" fill="var(--flag-palette-white, #eeeeee)"/>
<path d="M256 160V96H160V0H96V96H0V160H96V256H160V160H256Z" fill="var(--flag-palette-white, #eeeeee)"/>
<path d="M256 144V112H144V0H112V112H0V144H112V256H144V144H256Z" fill="var(--flag-palette-bright-red, #d80027)"/>
<path d="M0 16V0L96 96H80L0 16Z" fill="var(--flag-palette-bright-red, #d80027)"/>
<path d="M256 240L256 256L160 160L176 160L256 240Z" fill="var(--flag-palette-bright-red, #d80027)"/>
<path d="M16 256L0 256L96 160L96 176L16 256Z" fill="var(--flag-palette-bright-red, #d80027)"/>
<path d="M240 -6.99382e-07L256 0L160 96L160 80L240 -6.99382e-07Z" fill="var(--flag-palette-bright-red, #d80027)"/>
<path d="M449.649 315.738C457.011 305.61 461.928 293.241 461.928 278.261V166.948C452.626 173.937 441.065 178.079 428.535 178.079C410.327 178.079 394.163 169.336 384.009 155.819C373.854 169.336 357.69 178.079 339.484 178.079C326.953 178.079 315.392 173.936 306.09 166.95V278.261C306.09 293.241 311.007 305.61 318.369 315.738H449.649Z" fill="var(--flag-palette-light-grey, #f3f3f3)"/>
<path d="M426.493 257.61C430.038 248.964 432.794 236.326 432.794 230.036C432.794 219.93 419.619 211.739 419.619 211.739C419.619 211.739 406.444 219.93 406.444 230.036C406.444 236.327 409.201 248.965 412.743 257.61L405.138 274.783C409.608 276.601 414.494 277.611 419.62 277.611C424.745 277.611 429.631 276.6 434.102 274.783L426.493 257.61Z" fill="var(--flag-palette-gold, #ff9811)"/>
<path d="M374.998 202.007C365.742 203.261 353.418 207.196 347.971 210.341C339.219 215.394 338.711 230.898 338.711 230.898C338.711 230.898 352.394 238.212 361.145 233.159C366.594 230.014 376.158 221.309 381.872 213.917L400.549 211.917C399.888 207.138 398.316 202.401 395.757 197.964C393.193 193.526 389.878 189.798 386.067 186.835L374.998 202.007Z" fill="var(--flag-palette-gold, #ff9811)"/>
<path d="M352.594 274.407C358.308 281.795 367.876 290.499 373.324 293.645C382.076 298.698 395.758 291.386 395.758 291.386C395.758 291.386 395.248 275.88 386.498 270.826C381.049 267.681 368.727 263.75 359.468 262.498L348.4 247.323C344.591 250.286 341.275 254.016 338.711 258.449C336.15 262.889 334.582 267.624 333.918 272.405L352.594 274.407Z" fill="var(--flag-palette-gold, #ff9811)"/>
<path d="M315.616 311.658C336.405 345.016 384.01 356.182 384.01 356.182C384.01 356.182 431.614 345.016 452.405 311.658H315.616Z" fill="var(--flag-palette-light-blue, #338af3)"/>
</svg>

<svg xmlns="http://www.w3.org/2000/svg" width="512" height="512" fill="none"><path fill="#026" d="M0 0h512v512H0z"/><path fill="#026" d="M0 0h256v256H0z"/><path fill="#EEE" d="M232 256h24v-24L152 128 256 24V0h-24L128 104 24 0H0v24l104 104L0 232v24h24l104-104z"/><path fill="#EEE" d="M256 160V96h-96V0H96v96H0v64h96v96h64v-96z"/><path fill="var(--flag-palette-bright-red, #d80027)" d="M256 144v-32H144V0h-32v112H0v32h112v112h32V144z"/><path fill="var(--flag-palette-bright-red, #d80027)" d="M0 16V0l96 96H80zm256 224v16l-96-96h16zM16 256H0l96-96v16zM240 0h16l-96 96V80z"/><path fill="var(--flag-palette-light-grey, #f3f3f3)" d="M449.6 315.7a62 62 0 0 0 12.3-37.4V166.9a55.4 55.4 0 0 1-77.9-11 55.6 55.6 0 0 1-78 11v111.4c0 15 5 27.3 12.4 37.4z"/><path fill="var(--flag-palette-gold, #ff9811)" d="M426.5 257.6a91 91 0 0 0 6.3-27.6c0-10-13.2-18.3-13.2-18.3s-13.2 8.2-13.2 18.3a91 91 0 0 0 6.3 27.6l-7.6 17.2a38 38 0 0 0 29 0zM375 202a91 91 0 0 0-27 8.3c-8.8 5-9.3 20.6-9.3 20.6s13.7 7.3 22.4 2.3c5.5-3.2 15-11.9 20.8-19.3l18.6-2a38 38 0 0 0-14.4-25zm-22.4 72.4a91 91 0 0 0 20.7 19.2c8.8 5.1 22.5-2.2 22.5-2.2s-.6-15.5-9.3-20.6a91 91 0 0 0-27-8.3l-11.1-15.2a38 38 0 0 0-14.5 25.1z"/><path fill="var(--flag-palette-light-blue, #338af3)" d="M315.6 311.7c20.8 33.3 68.4 44.5 68.4 44.5s47.6-11.2 68.4-44.5z"/></svg>
